X: 14661
T: Gan Ainm
R: polka
M: 2/4
K: Eminor
|:E>F GA|Be ed|Bc/B/ AF|EF D2|
E>F GA|Be ed|Bc/B/ AF|1 FE ED:|2 FE Ed||
|:e>d ef|ga/g/ fe|d>^c de|fa d2|
e>d ef|ga/g/ fe|dB AF|1 E2 Ed:|2 FE ED||

